assets/icons/18px/outline/github-18px.svg

<svg width="18" height="18" viewBox="0 0 18 18" fill="none" xmlns="http://www.w3.org/2000/svg">
<path d="M7.16667 13.9727C3.83333 14.8989 3.83333 12.1202 2.5 12.1202M11.8333 15.5L11.8333 13.0939C11.8533 12.8591 11.8283 12.6227 11.7628 12.3965C11.6443 11.9869 11.8593 11.4078 12.2757 11.316C13.9865 10.9388 15.5 9.95636 15.5 7.15998C15.4999 6.51656 15.3004 5.89156 14.9324 5.3563C14.7024 5.02179 14.6156 4.6 14.6784 4.19894C14.7434 3.78323 14.7176 3.35878 14.6015 2.9513C14.5209 2.66816 14.2697 2.47944 13.9783 2.5217C13.6165 2.57417 13.0333 2.74057 12.1982 3.21361C11.9626 3.3471 11.6855 3.39062 11.4202 3.33644C10.1553 3.07817 8.84471 3.07817 7.5798 3.33644C7.31445 3.39062 7.0374 3.3471 6.80176 3.21361C5.96674 2.74057 5.38353 2.57417 5.0217 2.5217C4.73034 2.47944 4.47911 2.66816 4.39846 2.9513C4.2824 3.35878 4.25657 3.78322 4.32161 4.19892C4.38437 4.59999 4.29756 5.02179 4.06757 5.3563C3.69596 5.89679 3.49627 6.5287 3.5 7.17851C3.5 9.96453 5.02458 10.9405 6.74305 11.3283C7.15612 11.4215 7.3638 11.9927 7.24291 12.3986C7.1758 12.6239 7.14887 12.8595 7.16667 13.0939L7.16668 15.5" stroke="white" stroke-linecap="round" stroke-linejoin="round"/>
</svg>

<svg width="18" height="18" fill="none" xmlns="http://www.w3.org/2000/svg"><path d="M7.167 13.973c-3.334.926-3.334-1.853-4.667-1.853m9.333 3.38v-2.406a1.922 1.922 0 0 0-.07-.697c-.119-.41.096-.99.513-1.081 1.71-.377 3.224-1.36 3.224-4.156 0-.643-.2-1.268-.568-1.804a1.615 1.615 0 0 1-.254-1.157c.065-.416.04-.84-.077-1.248-.08-.283-.331-.472-.623-.43-.361.053-.945.22-1.78.693a1.124 1.124 0 0 1-.778.122 9.614 9.614 0 0 0-3.84 0c-.266.055-.543.011-.778-.122-.835-.473-1.418-.64-1.78-.692-.292-.043-.543.146-.624.43a2.907 2.907 0 0 0-.076 1.247c.062.401-.024.823-.254 1.157A3.18 3.18 0 0 0 3.5 7.18c0 2.786 1.525 3.761 3.243 4.15.413.092.62.664.5 1.07-.067.225-.094.46-.076.695V15.5" stroke="#fff" stroke-linecap="round" stroke-linejoin="round"/></svg>
